X: 100192
M: C|
L: 1/8
K: Bm
uF |\
ve/d/c/B/ (f>B) (d>f)b<f | {bag}(a>f)(e>a) (c>A)(a>c) |\
e/d/c/B/ (f>B) (d>f)b>f | (.a>.f)(e>c) B/B/B {gfe}f2 |
e/d/c/B/ (f>B) (d>f)b>f | {bag}a>fe>a c<Aa>c |\
e/d/c/B/ (f>d) (e<c) (d<B) | (A<F) E>C B,/B,/B, "^Segue Reel."[F2A,2] "_D.C."|]


